public/icons/clock.svg

<svg width="12" height="12" viewBox="0 0 12 12" fill="none" xmlns="http://www.w3.org/2000/svg">
<path d="M6 0C2.69166 0 0 2.69166 0 6C0 9.30834 2.69166 12 6 12C9.30834 12 12 9.30834 12 6C12 2.69166 9.30834 0 6 0ZM6 11.25C3.1051 11.25 0.750003 8.8949 0.750003 6C0.750003 3.1051 3.1051 0.750003 6 0.750003C8.8949 0.750003 11.25 3.1051 11.25 6C11.25 8.8949 8.8949 11.25 6 11.25Z" fill="#212121"/>
<path d="M6.375 2.25024H5.625V6.15551L7.98486 8.51537L8.51514 7.98509L6.375 5.84496V2.25024Z" fill="#212121"/>
</svg>

<svg viewBox="0 0 12 12" fill="none" xmlns="http://www.w3.org/2000/svg"><path d="M6 0C2.692 0 0 2.692 0 6s2.692 6 6 6 6-2.692 6-6-2.692-6-6-6zm0 11.25A5.256 5.256 0 01.75 6 5.256 5.256 0 016 .75 5.256 5.256 0 0111.25 6 5.256 5.256 0 016 11.25z" fill="#212121"/><path d="M6.375 2.25h-.75v3.906l2.36 2.36.53-.53-2.14-2.141V2.25z" fill="#212121"/></svg>
